src/assets/icons/public-profile/computer.svg

<svg width="48" height="48" viewBox="0 0 48 48" fill="none" xmlns="http://www.w3.org/2000/svg">
<path fill-rule="evenodd" clip-rule="evenodd" d="M41 5H7C4.79086 5 3 6.79086 3 9V34C3 36.2091 4.79086 38 7 38H41C43.2091 38 45 36.2091 45 34V9C45 6.79086 43.2091 5 41 5ZM7 2C3.13401 2 0 5.13401 0 9V34C0 37.866 3.13401 41 7 41H41C44.866 41 48 37.866 48 34V9C48 5.13401 44.866 2 41 2H7Z" fill="#13C1AC"/>
<path d="M12 44.5C12 43.6716 12.6716 43 13.5 43H34.5C35.3284 43 36 43.6716 36 44.5C36 45.3284 35.3284 46 34.5 46H13.5C12.6716 46 12 45.3284 12 44.5Z" fill="#13C1AC"/>
</svg>

<svg width="48" height="48" viewBox="0 0 48 48" fill="none" xmlns="http://www.w3.org/2000/svg"><path fill-rule="evenodd" clip-rule="evenodd" d="M41 5H7a4 4 0 00-4 4v25a4 4 0 004 4h34a4 4 0 004-4V9a4 4 0 00-4-4zM7 2a7 7 0 00-7 7v25a7 7 0 007 7h34a7 7 0 007-7V9a7 7 0 00-7-7H7z" fill="#13C1AC"/><path d="M12 44.5a1.5 1.5 0 011.5-1.5h21a1.5 1.5 0 010 3h-21a1.5 1.5 0 01-1.5-1.5z" fill="#13C1AC"/></svg>
